X:1
T:Romantic Flight
T:© DreamWorks Studios (2010)
T:© DreamWorks Studios (2010)
C:John Powell
Z:© DreamWorks Studios (2010)
%%score { 1 | 2 }
L:1/8
Q:1/4=102
M:3/4
K:B
V:1 treble nm="Piano, Piano" snm="Pno."
V:2 bass 
V:1
"^Freely"!p! Bc | e2{/fe} d3 f | d6 | c2 B3 d | F6 |!<(! c2 d2 f2!<)! | [Bdgb]6 | %7
!>(! [Begb]2 [cc']3 [dd']!>)! | [cfac']6 | [faf']2 g2 b2 |{/a} gf f2 d2 | Bc c3 f | %12
{/e} dc c2!8va(! !arpeggio!!fermata![b'b'']2!8va)! |!<(! z2 C2 E2!<)! || D3 F D2- | D4 C2 | %16
 B,3 D F,2- |[M:5/4] F,4 C2!<(! D2 F2!<)! |[M:3/4]!mf! [B,DGB]B, DB, GB, | [B,EGB]2 Mc3 [Dd] | %20
 [CB]2- [CB]3/2c/4B/4 A2 |!<(! [FAf]2!<)! G2 B2 | !arpeggio![Begb]f f2 [Bd]2 | B3 [Bc] [Bf]2 | %24
{/d} [Ed]c c4 | [F,F][G,G] [G,G]4 |!<(! [Ff][Gg] [Gg]4!<)! |!f!"_cresc." [Bdf]b [Beg]4 | %28
 B2 c2 d2 ||[K:Ab]!ff! !arpeggio!!>![Aea] EA [EAce][Acea][Bb] | !>![GBg] EG [EGBe][GBeg][Aa] | %31
!>(! !>![FAdf]3 [EAe][FAf][EAe]!>)! | !>![EGBe][Dd] [Dd][Cc] [B,B]!mp![A,A] | %33
!mf! !arpeggio!!>![Fca] EA [Ee][Aa][Eb] | !>![GBg] EG [Ee][Gg][Ea] | !>![FAf]3 [EAe][FAf][EAe] | %36
 [EBe][Dd] [Dd][Cc] BA ||[K:Db] [Bb][Aa] [Aa][Gg] [Gg][Dd] | [gb][da] [da][Bg] [Bg]d | %39
 !arpeggio![bd'g'b'][da] [da][Bg] [Bg]d |!<(! ba gd ec!<)! ||!f! [GBdg]2 [FAdf]3 [Aa] | [Ff]6 | %43
 [Ee]A [Dd]2 [Ff]2 | A6 |!<(! [EAe]2 [FAf]2 [Aca]2!<)! | !arpeggio!!>![dfbd'] F BF dF | %47
 !>![dfd']2 !>![ee']3 [ff'] | !>![ee']7/2 f/4e/4 [cc']2 |!<(! [Aa]2 [Bb]2 [dd']2!<)! | %50
!8va(! !arpeggio![bd'g'b'] a' a'2 [bd'f']2 | [bd']3 e' [aba']2 | %52
[M:4/4] !arpeggio![gbd'f']e' e'2!8va)! z ABf ||[M:3/4]!mp! [FAdf]2 f2 f2 | fe d[Ae] Bd | [Fd]6 | %56
 FE D[A,E] B,D |[M:2/4] [A,CF]3 [FA] |[M:3/4] [GBd]6 || !fermata![Fd]3[Q:1/4=130] A _cA | %60
 _cA FA DF | A_c gf dA | df [fa][a_c'] d'2- | d'2 x4 |] %64
V:2
 z2 | z6 | [DFB]6 | [B,EG]2 [B,DF]4 | [F,B,D]6 | [A,CF]2 [B,DF]2 [A,CFA]2 | [G,DG]D GD GD | %7
 [E,,E,]3/2 [E,E]4- [E,E]/ | [F,F]6 | [F,,F,]2 [A,F]2 [B,D]2 | E,B,EG E2 | G,,D, G,3 D | %12
 E,B, EG !arpeggio![B,-B]2 | B,2 z A,2 F, || B,,F, B,2 B,,2- | B,,B, F,B,, [F,,F,]2 | %16
 [B,,,F,,B,,]B,, B,,2 B,,,2- |[M:5/4] B,,,B,,F,,B,,, [F,,F,]2 [B,,F,B,]2 [A,,A,]2 | %18
[M:3/4] [G,,D,G,]D, G,D, B,D, | E,,B,, E,G, E,2 | F,,C, F,- F,3 | [F,,F,]2 F,,F, G,B, | %22
 E,,B,, E,G, E,2 | G,,D, G,G, D2 | E,,B,, E,G, E,2 | E,,B,, [E,,B,,E,]2 [E,,B,,E,]>[E,,B,,E,] | %26
 [D,,B,,D,][E,,B,,E,] [E,,B,,E,]2 [E,,B,,E,]>[E,,B,,E,] | [D,B,]D [E,B,E]4 | %28
 [E,,E,]2 E,,/4E,/4E,,3/2 [D,,D,]2 ||[K:Ab] !arpeggio![A,,,A,,]A,, E,A, C[A,,A,] | %30
 [E,,,E,,]E,, B,,E, G,E, | D,,A,, D,4 | !>![E,,E,]6 | [F,,F,]6 | [E,,E,]6 | D,,A,, D,4 | %36
 [B,,B,]4 B,A, ||[K:Db] [G,,D,B,]6 | B,A, A,G, G,D, | [G,,D,B,]A, A,G, G,D, | z2 [D,D]2 [E,E]2 || %41
 D,,A,, D,F, A,D | D,A, DA, FA, | A,D, D,,A,, D,F, | A,E FA dA | [A,,E,A,]2 [D,A,D]2 [C,F,C]2 | %46
 [B,,F,B,]6 | [B,,F,B,]2 [G,,D,G,] B,2 B, | [A,,A,]E, A,4 | A,,E, A,E, A,E, | %50
 !arpeggio![G,,D,B,]D, A,D, A,D, | !arpeggio![B,,F,B,]F, B,F, B,F, |[M:4/4] G,,D, G,6 || %53
[M:3/4] D,,A,, D,A,, D,A,, | D,A, DA, DA, | D,A, DA, DA, | D,,A,, D,A,, D,A,, |[M:2/4] F,,C, F,2 | %58
[M:3/4] G,,D, G,4 || !arpeggio![D,,A,,D,]6 | z2 z2 z2 | z2 z2 z2 | z7/2 D,,/- D,,2- | %63
 D,,3/2 x2 x2 x/ |] %64

